dist/svgs/crypto-icons/icons/sls.svg

<?xml version="1.0" encoding="UTF-8" standalone="yes"?>
<svg xmlns="http://www.w3.org/2000/svg" xmlns:xlink="http://www.w3.org/1999/xlink" width="512px" height="512px" viewBox="0 0 384 384" version="1.1">
  <g id="surface1">
    <path style=" stroke:none;fill-rule:nonzero;fill:rgb(0%,0%,0%);fill-opacity:1;" d="M 203.671875 383.324219 C 217.542969 377.570312 230.570312 369.789062 239.703125 359.472656 C 268.460938 326.484375 279.964844 266.601562 232.9375 232.597656 C 208.578125 215.007812 175.929688 207.054688 141.25 190.816406 C 106.574219 174.578125 86.78125 148.523438 81.027344 113.847656 C 76.292969 85.257812 78.152344 47.027344 116.890625 15.226562 C 48.210938 44.320312 0 112.492188 0 191.832031 C 0 297.726562 85.933594 383.660156 191.832031 383.660156 C 195.890625 383.660156 199.78125 383.492188 203.671875 383.324219 Z M 203.671875 383.324219 "/>
    <path style=" stroke:none;fill-rule:nonzero;fill:rgb(0%,0%,0%);fill-opacity:1;" d="M 277.597656 20.128906 L 284.363281 93.886719 L 273.199219 97.097656 C 273.199219 97.097656 258.480469 45.167969 227.523438 26.050781 C 196.566406 6.9375 139.390625 6.429688 122.644531 48.378906 C 105.894531 90.332031 125.6875 133.808594 187.601562 150.722656 C 249.515625 167.640625 306.523438 188.109375 302.464844 277.089844 C 299.417969 343.738281 261.019531 367.589844 234.289062 378.757812 C 319.886719 359.472656 383.832031 283.007812 383.832031 191.660156 C 383.660156 116.722656 340.523438 51.59375 277.597656 20.128906 Z M 277.597656 20.128906 "/>
  </g>
</svg>

<svg xmlns="http://www.w3.org/2000/svg" viewBox="0 0 384 384"><path d="M203.672 383.324c13.871-5.754 26.898-13.535 36.031-23.851 28.758-32.989 40.262-92.871-6.766-126.875-24.359-17.59-57.007-25.543-91.687-41.782-34.676-16.238-54.469-42.293-60.223-76.968-4.734-28.59-2.875-66.82 35.864-98.621C48.21 44.32 0 112.492 0 191.832 0 297.727 85.934 383.66 191.832 383.66c4.059 0 7.95-.168 11.84-.336zm0 0"/><path d="M277.598 20.129l6.765 73.758-11.164 3.21s-14.719-51.929-45.676-71.046C196.566 6.938 139.391 6.43 122.645 48.379c-16.75 41.953 3.043 85.43 64.957 102.344 61.914 16.918 118.921 37.386 114.863 126.367-3.047 66.648-41.445 90.5-68.176 101.668 85.598-19.285 149.543-95.75 149.543-187.098-.172-74.937-43.309-140.066-106.234-171.531zm0 0"/></svg>
